!!!COM: Palestrina, Giovanni Perluigi da
!!!OPR: Missa In semidupl. maj. (II)
!!!OMD: Gloria
!!!OTL: Domine Deus Agnus
**kern	**kern	**kern	**kern	**kern
*Ibass	*Itenor	*Itenor	*Icalto	*Icant
!Bassus	!Tenor 2	!Tenor 1	!Altus	!Cantus
*clefF4	*clefGv2	*clefGv2	*clefG2	*clefG2
*k[b-]	*k[b-]	*k[b-]	*k[b-]	*k[b-]
*F:ion	*F:ion	*F:ion	*F:ion	*F:ion
*M4/2	*M4/2	*M4/2	*M4/2	*M4/2
=46	=46	=46	=46	=46
0r	0r	0r	1r	1f
.	.	.	2.c	[1cc
.	.	.	4d	.
=47	=47	=47	=47	=47
0r	0r	1r	4e	2cc]
.	.	.	4f	.
.	.	.	2g	2b-
.	.	1F	2c	1a
.	.	.	[2f	.
=48	=48	=48	=48	=48
0r	2.C	1.c	2f]	0g
.	.	.	1e	.
.	4D	.	.	.
.	4E	.	.	.
.	4F	.	.	.
.	2G	2B-	2d	.
=49	=49	=49	=49	=49
1FF	2C	1A	0c	1f
.	1F	.	.	.
[1C	.	[1G	.	1r
.	4E	.	.	.
.	4D	.	.	.
=50	=50	=50	=50	=50
2C]	4E	1G]	2r	1g
.	4F	.	.	.
2BB-	2.G	.	2d	.
1AA	.	1A	2c	1cc
.	4F	.	.	.
.	[2F	.	2c	.
=51	=51	=51	=51	=51
1GG	2F]	1B-	1g	2b-
.	2E	.	.	2g
2FF	[1F	2.A	1c	1a
[2F	.	.	.	.
.	.	4B-	.	.
=52	=52	=52	=52	=52
2F]	1F]	2c	1f	2a
2D	.	2d	.	1a
1F	1r	1A	2c	.
.	.	.	[2f	2a
=53	=53	=53	=53	=53
1C	2r	1c	2f]	2.g
.	1c	.	4e	.
.	.	.	4d	4f
1r	.	1r	2e	2g
.	2A	.	[2f	[2a
=54	=54	=54	=54	=54
0r	1c	1r	4f]	4a]
.	.	.	4e	4g
.	.	.	2e	1cc
.	1G	2r	1d	.
.	.	[2G	.	2b
=55	=55	=55	=55	=55
1C	2r	2G]	1e	1cc
.	2c	2A	.	.
2D	2F	2B-	1r	1r
2E	2G	[2c	.	.
=56	=56	=56	=56	=56
1.F	2.A	4c]	1c	1r
.	.	4B-	.	.
.	.	1A	.	.
.	4G	.	.	.
.	2F	.	2d	2r
2E	2C	2G	2e	2g
=57	=57	=57	=57	=57
1D	2r	1F	1.f	2a
.	2F	.	.	2b-
1C	2G	1r	.	1cc
.	2A	.	2e	.
=58	=58	=58	=58	=58
1BB-	1.B-	2r	1d	1f
.	.	2F	.	.
2GG	.	2G	2e	2r
2FF	2A	2A	[2f	2cc
=59	=59	=59	=59	=59
1BB-	0G	2.B-	2f]	2b-
.	.	.	4e	2dd
.	.	4A	4d	.
1C	.	2G	1e	1cc
.	.	2c	.	.
=60	=60	=60	=60	=60
[0FF	[0F	[0c	[0f	[0a
=61	=61	=61	=61	=61
0FF]	0F]	0c]	0f]	0a]
*-	*-	*-	*-	*-
!!!CDT: 1525/^1526/-1594/2/2
!!!OCY: Italia
!!!AGN: Mass (Paraphrase)
!!!AST: renaissance, vocal
!!!ASW: Gregorian Mass
!!!PWK: Masses, Book Mantuan II
!!!RNB: Cadence finals: C
!!!YOR: Le Opere Complete, v. 19, p. 87
!!!YOO: Rome, Italy: Fratelli Scalera
!!!END: 1992//
!!!EED: John Miller
!!!YEC: Copyright 2000, John Miller
!!!YEN: United States of America
!!!YEM: Rights to all derivative electronic formats reserved.
!!!YEM: Refer to licensing agreement for further details.
!!!YEM: This file must be accompanied by the licensing agreement.
!!!YEM: A copy of the licensing agreement may be found at http://www.music-cog.ohio-state.edu/HumdrumDatabases/Palestrina/license.txt
!!!EMD: converted to Humdrum by Bret Aarden
